X: 1
T:Self [2],The. JGi.046
M:6/8
L:1/8
Q:3/8=90
S:Joshua Gibbons MS,1823,Tealby,Lincs.
R:jig
O:Tealby,Lincolnshire
Z:VMP/R.Greig, 2009
K:C
G|GEG ceg|gfed2f|egf edc|Bddd2G|
GEG ceg|gfe d2f|egc dfB|cccc2:|
|:EGc cBA|AGFE2C|E/F/G C E/F/G C|B,DD D2D|
EGc cBA|AGF E2C|E/F/G E FDB,|CCCC2:|

